svg/u1faa4.svg

<svg viewBox="0 0 128 128" xmlns="http://www.w3.org/2000/svg">
  <defs>
    <radialGradient id="SVGID_1_" cx="83.882453" cy="89.627869" gradientTransform="matrix(0.9983 0.0577 -0.0577 0.9983 0 0)" gradientUnits="userSpaceOnUse" r="6.2574">
      <stop offset="0.1654" stop-color="#FFC107"/>
      <stop offset="1" stop-color="#F19534"/>
    </radialGradient>
  </defs>
  <path d="M105.24,101.72 L44.21,101.72 L6.58,121.47 C6.21,121.66 6.35,122.23 6.77,122.23 L24.89,122.23 L23.42,124.2 C23.42,124.2 23.75,124.23 25.17,124.01 C26.59,123.78 29.26,122.24 29.26,122.24 L64.5,122.24 C64.93,122.24 65.36,122.14 65.74,121.94 L105.24,101.72 Z" opacity="0.4"/>
  <path d="M105.24,101.72 L44.21,101.72 L4,43.5 L65.03,43.5 Z" fill="#5D4037"/>
  <path d="M48.22,38.67 L62.97,60.64 L44.21,101.72 L105.24,101.72 L103.38,38.57 Z" fill="#3E2723"/>
  <path d="M63.96,45.55 L101.33,99.67 L45.28,99.67 L7.91,45.55 L63.96,45.55 M65.03,43.5 L4,43.5 L44.21,101.72 L105.24,101.72 L65.03,43.5 L65.03,43.5 Z" fill="#A06841"/>
  <path d="M4,43.5 L28.91,5.33 L87.13,5.33 L65.03,43.5 Z" fill="#D68B52"/>
  <path d="M87.13,5.33 C87.45,6.3 124,60.64 124,60.64 L105.24,101.72 L65.03,43.5 L87.13,5.33 Z" fill="#A06841"/>
  <path d="M77.12,104.56 C77.26,104.56 80.42,104.61 82,104.46 C83.58,104.31 84.62,103.67 84.62,103.67 L78.5,99.5 L77.12,104.56 Z" fill="#F19534"/>
  <path d="M64.75,84.6 L66.06,84.6 C66.37,84.6 66.68,84.71 66.91,84.92 L70.27,87.8 L66.12,88.35 L64.75,84.6 Z" fill="#D1762C"/>
  <path d="M87.35,88.13 C87.26,86.77 86.88,84.77 82.88,84.77 L72.64,84.67 C72.4,84.67 72.18,84.8 72.1,85.03 C71.94,85.51 71.65,85.95 71.24,86.32 C70.02,87.41 68.21,87.36 67.2,86.22 C66.89,85.88 66.7,85.47 66.61,85.04 C66.55,84.78 66.32,84.6 66.06,84.6 L60.12,84.54 C59.1,84.53 58.16,85.08 57.67,85.98 L48.58,102.76 C48.33,103.16 48.2,103.63 48.21,104.1 L48.61,116.69 C48.66,118.28 50.17,119.45 52.43,118.74 L87.65,97.5 L87.35,88.13 Z" fill="#FFC107"/>
  <path d="M87.35,88.13 C87.31,86.97 86.16,86.18 85.07,86.57 L50.89,102.58 C50.18,102.83 49.72,103.51 49.74,104.25 L50.15,117.18 C50.19,118.34 51.34,119.13 52.43,118.74 L77.9,106.81 C78.28,106.63 78.53,106.26 78.55,105.83 C78.61,104.73 78.96,102.67 80.76,102.66 C81.59,102.65 82.17,103.17 82.52,103.64 C82.84,104.07 83.42,104.22 83.91,103.99 L86.61,102.72 C87.32,102.47 87.78,101.79 87.76,101.04 L87.35,88.13 Z" fill="#FFE959"/>
  <path d="M63.078,90.049 C63.521,91.157 62.65,92.547 61.132,93.154 C59.614,93.761 58.024,93.356 57.581,92.248 C57.138,91.14 58.009,89.75 59.527,89.143 C61.045,88.536 62.635,88.942 63.078,90.049 Z" fill="#F19534"/>
  <path d="M79.43,89.2 C79.43,89.2 80.68,94.88 76.99,95.87 C73.73,96.74 73.11,92.46 73.11,92.46 C73.11,92.46 69.24,90.82 71.86,89.6 C75.98,87.68 79.43,89.2 79.43,89.2 Z" fill="url(#SVGID_1_)"/>
  <path d="M71.335,103.501 C71.395,105.384 70.146,106.951 68.545,107.002 C66.944,107.053 65.598,105.569 65.538,103.686 C65.478,101.804 66.727,100.237 68.328,100.186 C69.928,100.134 71.275,101.619 71.335,103.501 Z" fill="#FFC107"/>
  <path d="M20.29,33.8 C21.02,33.6 22.67,33.75 23.67,35.14 C24.92,36.86 23.86,40.98 25.69,43.7 C26.72,45.22 28.3,45.51 28.3,45.51 C27.17,45.67 21.07,47.35 20.05,40.9" fill="#4E342E"/>
  <path d="M25.62,45.58 C22.41,44.5 21.51,40.59 21.77,38.32 C22.17,34.96 21.05,34.25 20.22,33.99 C17.47,33.1 15.45,35.32 15.45,40.54 C15.45,46.96 21.12,49.22 21.12,49.27 L21.12,122.97 C21.12,123.22 21.24,123.45 21.45,123.59 C21.83,123.84 22.51,124.19 23.42,124.19 C24.33,124.19 25.04,123.84 25.43,123.58 C25.64,123.44 25.77,123.2 25.77,122.95 L25.77,50.57 C25.99,50.58 32,50.77 34.89,45.52 L25.62,45.58 Z" fill="#FFB74D"/>
  <path d="M29.65,47.63 C30.25,49.05 28.93,50.14 28.93,50.14 C31.63,49.47 33.63,47.81 34.89,45.52 L25.62,45.59 C25.62,45.58 28.75,45.49 29.65,47.63 Z" fill="#BA793E"/>
</svg>

<svg viewBox="0 0 128 128" xmlns="http://www.w3.org/2000/svg">
  <g>
    <path d="M105.24,101.72H44.21L6.58,121.47c-0.37,0.19-0.23,0.76,0.19,0.76h18.12l-1.47,1.97 c0,0,0.33,0.03,1.75-0.19c1.42-0.23,4.09-1.77,4.09-1.77H64.5c0.43,0,0.86-0.1,1.24-0.3L105.24,101.72z" opacity="0.4"/>
    <polygon points="105.24,101.72 44.21,101.72 4,43.5 65.03,43.5 " fill="#5D4037"/>
    <polygon points="48.22,38.67 62.97,60.64 44.21,101.72 105.24,101.72 103.38,38.57 " fill="#3E2723"/>
    <path d="M63.96,45.55l37.37,54.12H45.28L7.91,45.55H63.96 M65.03,43.5H4l40.21,58.22h61.03L65.03,43.5 L65.03,43.5z" fill="#A06841"/>
    <polygon points="4,43.5 28.91,5.33 87.13,5.33 65.03,43.5 " fill="#D68B52"/>
    <path d="M87.13,5.33C87.45,6.3,124,60.64,124,60.64l-18.76,41.08L65.03,43.5L87.13,5.33z" fill="#A06841"/>
    <g>
      <path d="M77.12,104.56c0.14,0,3.3,0.05,4.88-0.1s2.62-0.79,2.62-0.79L78.5,99.5L77.12,104.56z" fill="#F19534"/>
      <path d="M64.75,84.6h1.31c0.31,0,0.62,0.11,0.85,0.32l3.36,2.88l-4.15,0.55L64.75,84.6z" fill="#D1762C"/>
      <g>
        <path d="M87.35,88.13c-0.09-1.36-0.47-3.36-4.47-3.36l-10.24-0.1c-0.24,0-0.46,0.13-0.54,0.36 c-0.16,0.48-0.45,0.92-0.86,1.29c-1.22,1.09-3.03,1.04-4.04-0.1c-0.31-0.34-0.5-0.75-0.59-1.18c-0.06-0.26-0.29-0.44-0.55-0.44 l-5.94-0.06c-1.02-0.01-1.96,0.54-2.45,1.44l-9.09,16.78c-0.25,0.4-0.38,0.87-0.37,1.34l0.4,12.59c0.05,1.59,1.56,2.76,3.82,2.05 L87.65,97.5L87.35,88.13z" fill="#FFC107"/>
        <path d="M87.35,88.13c-0.04-1.16-1.19-1.95-2.28-1.56l-34.18,16.01c-0.71,0.25-1.17,0.93-1.15,1.67 l0.41,12.93c0.04,1.16,1.19,1.95,2.28,1.56l25.47-11.93c0.38-0.18,0.63-0.55,0.65-0.98c0.06-1.1,0.41-3.16,2.21-3.17 c0.83-0.01,1.41,0.51,1.76,0.98c0.32,0.43,0.9,0.58,1.39,0.35l2.7-1.27c0.71-0.25,1.17-0.93,1.15-1.68L87.35,88.13z" fill="#FFE959"/>
        <ellipse cx="60.33" cy="91.14" rx="2.96" ry="2.16" fill="#F19534" transform="matrix(0.9285 -0.3714 0.3714 0.9285 -29.5362 28.9316)"/>
        <radialGradient id="SVGID_1_" cx="78.3912" cy="93.8546" gradientTransform="matrix(0.9983 0.0577 -0.0577 0.9983 5.7258 -3.9027)" gradientUnits="userSpaceOnUse" r="6.2574">
          <stop offset="0.1654" stop-color="#FFC107"/>
          <stop offset="1" stop-color="#F19534"/>
        </radialGradient>
        <path d="M79.43,89.2c0,0,1.25,5.68-2.44,6.67c-3.26,0.87-3.88-3.41-3.88-3.41s-3.87-1.64-1.25-2.86 C75.98,87.68,79.43,89.2,79.43,89.2z" fill="url(#SVGID_1_)"/>
        <ellipse cx="68.44" cy="103.59" rx="2.9" ry="3.41" fill="#FFC107" transform="matrix(0.9995 -0.0319 0.0319 0.9995 -3.2739 2.2389)"/>
      </g>
    </g>
    <path d="M20.29,33.8c0.73-0.2,2.38-0.05,3.38,1.34c1.25,1.72,0.19,5.84,2.02,8.56 c1.03,1.52,2.61,1.81,2.61,1.81c-1.13,0.16-7.23,1.84-8.25-4.61" fill="#4E342E"/>
    <path d="M25.62,45.58c-3.21-1.08-4.11-4.99-3.85-7.26c0.4-3.36-0.72-4.07-1.55-4.33 c-2.75-0.89-4.77,1.33-4.77,6.55c0,6.42,5.67,8.68,5.67,8.73v73.7c0,0.25,0.12,0.48,0.33,0.62c0.38,0.25,1.06,0.6,1.97,0.6 c0.91,0,1.62-0.35,2.01-0.61c0.21-0.14,0.34-0.38,0.34-0.63V50.57c0.22,0.01,6.23,0.2,9.12-5.05L25.62,45.58z" fill="#FFB74D"/>
    <path d="M29.65,47.63c0.6,1.42-0.72,2.51-0.72,2.51c2.7-0.67,4.7-2.33,5.96-4.62l-9.27,0.07 C25.62,45.58,28.75,45.49,29.65,47.63z" fill="#BA793E"/>
  </g>
</svg>
